!!!!SEGMENT: pl-kk--kk-i-8--034_anonim--salutis-humanae-sator-jesu.krn
!!!cenid: 16xx:1175
!!!COM: Anonim
!!!COM-rismid: pe30004985
!!!CDT:
!!!CNT:
!!!OTL: Salutis humanae sator Jesu
!!!PDT:
!!!AGN: Sacred
!!!SMS-siglum: PL-Kk
!!!SMS-shelfmark: Kk.I.8
!!!SMS-shelfwork: 034 W
!!!SMS-variant:
!!!SMS-altvar:
!!!NIFC-rismid: 1001149239
!!!URL-scan: http://repozytorium.nifc.pl/skany/pl-kk-nut--i-8
!!!ONB-nifc: UWAGA: A (skan 0021-0022), T1 (0044-0045), T2 (0068-0069), B (0091-0092). Następny utwór: Haec est Virgo Sapiens
!!!SMS-altvar:
**kern	**text	**text	**kern	**text	**text	**kern	**text	**text	**kern	**text	**text
*part4	*part4	*part4	*part3	*part3	*part3	*part2	*part2	*part2	*part1	*part1	*part1
*staff4	*staff4	*staff4	*staff3	*staff3	*staff3	*staff2	*staff2	*staff2	*staff1	*staff1	*staff1
*Ibass	*	*	*Itenor	*	*	*Itenor	*	*	*Ialto	*	*
*I"[BASSVS.]	*	*	*I"[TENOR 2dus.]	*	*	*I"[Tenore 1mo]	*	*	*I"[alto.]	*	*
*I'B.	*	*	*I'T. 2	*	*	*I'T. 1	*	*	*I'A.	*	*
*clefF4	*	*	*clefC1	*	*	*clefC4	*	*	*clefC3	*	*
*k[]	*	*	*k[]	*	*	*k[]	*	*	*k[]	*	*
*a:	*	*	*a:	*	*	*a:	*	*	*a:	*	*
*M3/1	*	*	*M3/1	*	*	*M3/1	*	*	*M3/1	*	*
=1	=1	=1	=1	=1	=1	=1	=1	=1	=1	=1	=1
!LO:TX:t=P:problem:przed kluczem inicjał S	!	!	!LO:TX:t=P:problem:przed kluczem inicjał S	!	!	!LO:TX:a:i:t=De Aſcenſione Domini	!	!	!LO:TX:t=P:problem:przed kluczem inicjał S	!	!
!LO:TX:a:i:t=De Aſcenſione Domini.	!	!	!LO:TX:a:i:t=De Aſcenſione Domini.	!	!	!LO:TX:t=P:problem:przed kluczem inicjał S	!	!	!LO:TX:a:i:t=De aſcenſione D. N. J. C.	!	!
1A	Sa-	.	1a	Sa-	.	1c	Sa-	.	1e	Sa-	.
1AA	-lu-	.	1cc	-lu-	.	1.e	-lu-	.	1a	-lu-	.
1E	-tis	.	1b	-tis	.	.	.	.	1g	-tis	.
.	.	.	.	.	.	2e\	-tis	.	.	.	.
=2	=2	=2	=2	=2	=2	=2	=2	=2	=2	=2	=2
1F	hu-	.	1a	hu-	.	1c	hu-	.	1f	hu-	.
1.D	-ma-	.	1b	-ma-	.	1d	-ma-	.	1.f	-ma-	.
.	.	.	(2b\	-n(ae)	.	(2d\	-n(ae)	.	.	.	.
2D/	-n(ae)	.	2a\)	.	.	2c\)	.	.	2f\	-n(ae)	.
=3	=3	=3	=3	=3	=3	=3	=3	=3	=3	=3	=3
1E	ſa-	.	1g#X	ſa-	.	1B	Sa-	.	1e	.	.
1E	-tor	.	1e	-tor	.	1B	-tor	.	1e	ſa-	.
1C#X	Je-	.	1a	Je-	.	1A	Je-	.	1e	-tor	.
=4	=4	=4	=4	=4	=4	=4	=4	=4	=4	=4	=4
1.D	-ſu	.	1.f	-ſu	.	1A	-ſu	.	1.a	Je-	.
.	.	.	.	.	.	(2d\	Vo-	.	.	.	.
2D/	Vo-	.	2e/	Vo-	.	2c\)	.	.	2a\	-ſu	.
1G	-lup-	.	1d	-lüp-	.	1B	-lu-	.	1g	Vo-	.
=5	=5	=5	=5	=5	=5	=5	=5	=5	=5	=5	=5
1.C	-tas	.	1.e	-tas	.	1c	-ptaſ	.	1.g	-lu-	.
.	.	.	.	.	.	2c\	vo-	.	.	.	.
2D/	uo-	.	2f/	Vo-	.	4B\	.	.	2f\	-ptas	.
.	.	.	.	.	.	4A\	.	.	.	.	.
1E	-lup-	.	1g	-lup-	.	(<2G/	-lu-	.	2e\	.	.
.	.	.	.	.	.	2c\)	.	.	2d\	.	.
=6	=6	=6	=6	=6	=6	=6	=6	=6	=6	=6	=6
1F	-tas	.	1a	-tas	.	1c	-ptas	.	2c/	.	.
.	.	.	.	.	.	.	.	.	2a\	.	.
1.G	cor-	.	1.d	Cor-	.	1.c	Cor-	.	1.g	cor-	.
2G\	-di-	.	2d/	-di-	.	2B\	-di-	.	2g\	-di-	.
=7	=7	=7	=7	=7	=7	=7	=7	=7	=7	=7	=7
0.C	-u(m)	.	0.e	-um	.	0.c	-u(m)	.	0.g	-u(m)	.
!	!	!	!LO:LB:g=original	!	!	!LO:LB:g=original	!	!	!	!	!
=8	=8	=8	=8	=8	=8	=8	=8	=8	=8	=8	=8
1A	or-	.	1cc	or-	.	1c	or-	.	1e	or-	.
1.F	-bis	.	1.dd	-bis	.	1A	-bis	.	1.f	-biſ	.
.	.	.	.	.	.	1A	re-	.	.	.	.
2F\	re-	.	2cc\	re-	.	.	.	.	2e\	re-	.
!LO:LB:g=original	!	!	!	!	!	!	!	!	!LO:LB:g=original	!	!
=9	=9	=9	=9	=9	=9	=9	=9	=9	=9	=9	=9
1.G	-dem-	.	0b	-dem-	.	0G	-dem-	.	1d	-dem-	.
.	.	.	.	.	.	.	.	.	2d\	-pti	.
2F\	.	.	.	.	.	.	.	.	2d\	re-	.
1E	.	.	1cc	.	.	1G	-pti	.	2e\	-dem-	.
.	.	.	.	.	.	.	.	.	2f\	.	.
=10	=10	=10	=10	=10	=10	=10	=10	=10	=10	=10	=10
1BB	-pti	.	1b	-pti	.	1.d	Con-	.	2g\	.	.
.	.	.	.	.	.	.	.	.	2g\	-pti	.
1.D	con-	.	1.a	Con-	.	.	.	.	1.g	Con-	.
.	.	.	.	.	.	4c\	.	.	.	.	.
.	.	.	.	.	.	4B\	.	.	.	.	.
.	.	.	.	.	.	2.A/	.	.	.	.	.
2D/	-di-	.	2a\	-di-	.	.	.	.	2f#X\	-di-	.
.	.	.	.	.	.	4A/	-di-	.	.	.	.
=11	=11	=11	=11	=11	=11	=11	=11	=11	=11	=11	=11
0GG	-tor	.	0g	-tor	.	0B	-tor	.	0g	-tor	.
1C	et	.	1e	et	.	1c	et	.	1g	et	.
=12	=12	=12	=12	=12	=12	=12	=12	=12	=12	=12	=12
!	!	!	!LO:TX:a:t=P:problem:# above	!	!	!	!	!	!	!	!
0D	caſ-	.	1.f#X	Ca-	.	(<1A	Caſ-	.	0f#X	Caſ-	.
.	.	.	.	.	.	1d)	.	.	.	.	.
.	.	.	4g/	.	.	.	.	.	.	.	.
.	.	.	4a/	.	.	.	.	.	.	.	.
!	!	!	!LO:TX:b:t=P:problem:# below	!	!	!	!	!	!	!	!
1E	-ta	.	2g#X/	.	.	1B	-ta	.	1e	-ta	.
.	.	.	4a\	.	.	.	.	.	.	.	.
.	.	.	4b\	.	.	.	.	.	.	.	.
=13	=13	=13	=13	=13	=13	=13	=13	=13	=13	=13	=13
0A	lux	.	1a	.	.	0c	lux	.	0e	lux	.
.	.	.	1a	-ſta	.	.	.	.	.	.	.
1E	et	.	1g#X	et	.	1B	et	.	1e	êt	.
=14	=14	=14	=14	=14	=14	=14	=14	=14	=14	=14	=14
1.A	caſ-	.	1.a	Ca-	.	0c	ca-	.	1.e	ca-	.
2A\	-ta	.	4b\	.	.	.	.	.	2f\	.	.
.	.	.	4cc\	.	.	.	.	.	.	.	.
2G\	.	.	2b\	.	.	1d	-ſta	.	1g	-ſta	.
2F\	.	.	4cc\	.	.	.	.	.	.	.	.
.	.	.	4dd\	.	.	.	.	.	.	.	.
=15	=15	=15	=15	=15	=15	=15	=15	=15	=15	=15	=15
1.E	lux	.	1.cc	.	.	0e	lux	.	1.g	lux	.
2D\	.	.	2dd\	-ſta	.	.	.	.	2f\	.	.
2C/	.	.	1ee	lux	.	1e	a-	.	2e\	.	.
2BB/	.	.	.	.	.	.	.	.	4f\	.	.
.	.	.	.	.	.	.	.	.	4g\	.	.
=16	=16	=16	=16	=16	=16	=16	=16	=16	=16	=16	=16
1AA	a-	.	1cc	A-	.	0e	-man-	.	2a\	a-	.
.	.	.	.	.	.	.	.	.	2a\	-man-	.
1.E	-man-	.	1.b	-man-	.	.	.	.	1.a	-ti-	.
.	.	.	.	.	.	1e	-ti-	.	.	.	.
2E\	-ti-	.	2b\	-ti-	.	.	.	.	2g\	.	.
=17-	=17	=17	=17	=17	=17	=17	=17	=17	=17	=17	=17
0.AA;;	-um	.	0.a;;	-u(m)	.	0.e	-u(m).	.	0.a;;	-u(m).	.
!	!	!	!LO:LB:g=original	!	!	!LO:LB:g=original	!	!	!LO:LB:g=original	!	!
=18||	=18||	=18||	=18||	=18||	=18||	=18	=18||	=18||	=18||	=18||	=18||
*	*	*	*M3/1	*	*	*M3/1	*	*	*M3/1	*	*
!	!	!	!LO:TX:t=P:problem:przed kluczem inicjał Q	!	!	!LO:TX:t=P:problem:przed kluczem inicjał Q	!	!	!LO:TX:t=P:problem:przed kluczem inicjał Q	!	!
!	!	!	!LO:TX:a:t=P:problem:# above	!	!	!	!	!	!	!	!
1AA	Qua	.	1cc#X	Qua	.	1A	Qua	.	1e	Qua	.
1AA	Vic-	.	1dd	Vic-	.	1A	Vic-	.	1f	Vic-	.
1A	-t(us)	.	1cc#	-t(us)	.	1e	-t(us)	.	1e	-t(us)	.
!LO:LB:g=original	!	!	!	!	!	!	!	!	!	!	!
=19	=19	=19	=19	=19	=19	=19	=19	=19	=19	=19	=19
0D	eſ	.	1.dd	eſ	.	0f	êſ	.	0d	eſ	.
.	.	.	2d/	.	.	.	.	.	.	.	.
1C#X	cle-	.	2e/	cle-	.	1e	cle-	.	1e	cle-	.
.	.	.	2f/	.	.	.	.	.	.	.	.
=20	=20	=20	=20	=20	=20	=20	=20	=20	=20	=20	=20
0E	-men-	.	1.g#X	-men-	.	1.e	-men-	.	1c	.	.
.	.	.	.	.	.	.	.	.	1.B	-men-	.
.	.	.	2g#/	-ti-	.	2e\	-ti-	.	.	.	.
1E	-ti-	.	0g#	-a	.	0e	-a	.	.	.	.
.	.	.	.	.	.	.	.	.	2A/	-ti-	.
=21	=21	=21	=21-	=21	=21	=21-	=21	=21	=21	=21	=21
0E	-a	.	.	.	.	.	.	.	0G#X	-a	.
.	.	.	1g#X	ut	.	1e	ut	.	.	.	.
1E	ut	.	1g#	noſ-	.	1e	noſ-	.	1B	ut	.
=22	=22	=22	=22	=22	=22	=22	=22	=22	=22	=22	=22
1.A	noſ-	.	1a	-tra	.	0e	-tra	.	1.c	no-	.
!	!	!	!LO:N:acc=-	!	!	!	!	!	!	!	!
.	.	.	0ccn	fer-	.	.	.	.	.	.	.
2G\	-tra	.	.	.	.	.	.	.	2d\	-ſtra	.
1E	fer-	.	.	.	.	1e	fêr-	.	2e\	.	.
.	.	.	.	.	.	.	.	.	2f\	.	.
=23-	=23	=23	=23	=23	=23	=23	=23	=23	=23	=23	=23
(2E\	-res	.	1cc	-res	.	(2e\	-res	.	2g\	fer-	.
2F\)	.	.	.	.	.	2d\)	.	.	2a\	-res	.
1.G	Cri-	.	1.cc	cri-	.	1.G	cri-	.	1.d	Cri-	.
2G\	-mi-	.	2b\	-mi-	.	2F/	-mi-	.	2c/	-mi-	.
=24	=24	=24	=24-	=24	=24	=24	=24	=24	=24	=24	=24
0C	-na	.	0cc	-na	.	0E	-na	.	0c	-na	.
1AA	Mor-	.	1cc#X	Mor-	.	1e	Mor-	.	(2e\	mor-	.
.	.	.	.	.	.	.	.	.	2f\)	.	.
=25	=25	=25	=25	=25	=25	=25	=25	=25	=25	=25	=25
1.D	-te(m)	.	1dd	-te(m)	.	1.d	-te(m)	.	1.f	.	.
.	.	.	1a	ſu-	.	.	.	.	.	.	.
2D/	ſu-	.	.	.	.	2d\	ſu-	.	2e\	-te(m)	.
1GG	-bi-	.	1b-X	-bi-	.	1d	-bi-	.	(2g\	ſu-	.
.	.	.	.	.	.	.	.	.	2f\)	-bi-	.
!	!	!	!LO:LB:g=original	!	!	!	!	!	!LO:LB:g=original	!	!
=26	=26	=26	=26	=26	=26	=26	=26	=26	=26	=26	=26
1GG	-res	.	1b-X	-res	.	1d	-reſ	.	(2e\	-res	.
.	.	.	.	.	.	.	.	.	2f\)	.	.
1.AA	in-	.	1.a	in-	.	1d	in-	.	1.e	In-	.
!	!	!	!	!	!	!LO:TX:a:t=P:problem:# above	!	!	!	!	!
.	.	.	.	.	.	1c#X	-no-	.	.	.	.
2AA/	-no-	.	2a\	-no-	.	.	.	.	2d\	-no-	.
!	!	!	!	!	!	!LO:LB:g=original	!	!	!	!	!
=27	=27	=27	=27	=27	=27	=27	=27	=27	=27	=27	=27
0D	-cenſ	.	0a	-cenſ	.	0d	-cenſ	.	0d	-cenſ	.
1C#X	à	.	1a	a	.	1A	à	.	1e	a	.
=28	=28	=28	=28	=28	=28	=28	=28	=28	=28	=28	=28
!	!	!	!LO:N:acc=#	!	!	!	!	!	!	!	!
0BB	Mor-	.	0bnX	Mor-	.	1d#X	Mor-	.	0f#X	Mor-	.
.	.	.	.	.	.	0e	-te	.	.	.	.
1BB	-te	.	1b	-te	.	.	.	.	(2f#\	-te	.
.	.	.	.	.	.	.	.	.	2g\)	.	.
=29	=29	=29	=29	=29	=29	=29	=29	=29	=29	=29	=29
0BB	nos	.	0b	nos	.	0e	nos	.	1g	nos	.
.	.	.	.	.	.	.	.	.	1g	a	.
1BB	à	.	1b	a	.	1f#X	à	.	(2d#X\	mor-	.
.	.	.	.	.	.	.	.	.	2e\)	.	.
!LO:LB:g=original	!	!	!	!	!	!	!	!	!	!	!
=30	=30	=30	=30	=30	=30	=30	=30	=30	=30	=30	=30
0C	mor-	.	0ee	Mor-	.	0e	Mor-	.	1e	-te	.
.	.	.	.	.	.	.	.	.	1e	noſ	.
1BB	-te	.	1b	-te	.	1d-X	-te	.	1f#X	ut	.
=31	=31	=31	=31	=31	=31	=31	=31	=31	=31	=31	=31
*	*	*	*col	*	*	*	*	*	*	*	*
(>1.AA	nos	.	0cc	nos	.	(1.c	nos	.	0a	ſol-	.
2BB/)	.	.	.	.	.	2d\	.	.	.	.	.
1C	ut	.	0cc	ut	.	1e)	.	.	1g	-le-	.
=32	=32	=32	=32-	=32	=32	=32	=32	=32	=32	=32	=32
1AA	tol-	.	.	.	.	1e	ut	.	1g	-rêſ	.
*	*	*	*Xcol	*	*	*	*	*	*	*	*
!	!	!	!	!	!	!	!	!	!LO:TX:a:t=P:problem:# above	!	!
1.BB	.	.	1.b	tol-	.	1.e	tol-	.	1.f#X	.	.
2BB/	-le-	.	2b\	-le-	.	2d#X\	-le-	.	2f#\	.	.
=33	=33	=33	=33	=33	=33	=33	=33	=33	=33	=33	=33
0E	-res	.	0b	-rês	.	0e	-reſ	.	0e	.	.
!LO:TX:a:t=P:problem:# above	!	!	!	!	!	!	!	!	!	!	!
1C#X	a	.	1a	à	.	1e	a	.	(2e\	a	.
!	!	!	!	!	!	!	!	!	!LO:N:acc=-	!	!
.	.	.	.	.	.	.	.	.	2fn\)	.	.
=34	=34	=34	=34	=34	=34	=34	=34	=34	=34	=34	=34
0D	Mor-	.	0a	mor-	.	0d	Mor-	.	0f	mor-	.
!	!	!	!LO:TX:a:t=P:problem:# above	!	!	!	!	!	!LO:TX:a:t=P:problem:# above	!	!
!	!	!	!LO:SIC:v:s=1g	!	!	!	!	!	!	!	!
1E	-te	.	1g#X	-te	.	1G	-te	.	2c#X\	-te	.
.	.	.	.	.	.	.	.	.	2d\	.	.
!	!	!	!	!	!	!	!	!	!LO:LB:g=original	!	!
=35	=35	=35	=35	=35	=35	=35	=35	=35	=35	=35	=35
0F	nos	.	(1.a	nos	.	0F	nos	.	1d	a	.
.	.	.	.	.	.	.	.	.	1d	.	.
.	.	.	2b\)	.	.	.	.	.	.	.	.
!	!	!	!LO:TX:a:t=P:problem:# above	!	!	!	!	!	!	!	!
1E	a	.	1cc#X	.	.	1c#X	a	.	(2G#X/	mor-	.
.	.	.	.	.	.	.	.	.	2A/)	.	.
=36	=36	=36	=36	=36	=36	=36	=36	=36	=36	=36	=36
1D	Mor-	.	1a	à	.	0d	mor-	.	1A	.	.
(1F	-te	.	1dd	mor-	.	.	.	.	1A	-te	.
1E)	.	.	1b	-te	.	1e	-te	.	1B	nos	.
!	!	!	!LO:LB:g=original	!	!	!	!	!	!	!	!
=37	=37	=37	=37	=37	=37	=37	=37	=37	=37	=37	=37
0D	nos	.	(0dd	nos	.	0f	no	.	0d	at	.
!	!	!	!	!	!	!	!	!	!LO:N:acc=-	!	!
1AA	ut	.	1cc)	.	.	1e	.	.	1cn	.	.
!	!	!	!	!	!	!LO:LB:g=original	!	!	!	!	!
=38	=38	=38	=38	=38	=38	=38	=38	=38	=38	=38	=38
1C	tol-	.	1b	ut	.	1e	ut	.	1c	tol-	.
1.E	.	.	1.a	tol-	.	1.e	tol-	.	1.B	-le-	.
2E\	-le-	.	2g#X/	-le-	.	2e\	-le-	.	2B/	-res	.
=39	=39	=39	=39-	=39	=39	=39	=39	=39	=39	=39	=39
0.AA	-res	.	0.a;<	-res.	.	0.e;;	-reſ	.	0.A	.	.
=40||	=40||	=40||	=40||	=40||	=40||	=40||	=40||	=40||	=40||	=40||	=40||
!LO:TX:t=P:problem:takt zbędny, wymazany?	!	!	!	!	!	!	!	!	!	!	!
1AA	Pe-	.	0.ryy	.	.	0.ryy	.	.	0.ryy	.	.
1AA	-rum-	.	.	.	.	.	.	.	.	.	.
1E	-pis	.	.	.	.	.	.	.	.	.	.
!LO:LB:g=original	!	!	!	!	!	!	!	!	!	!	!
=41	=41	=41	=41	=41	=41	=41	=41	=41	=41	=41	=41
*M3/1	*	*	*M3/1	*	*	*M3/1	*	*	*	*	*
!	!	!	!LO:TX:t=P:problem:przed metrum inicjał P	!	!	!	!	!	!LO:TX:a:t=1	!	!
!	!	!	!	!	!	!LO:TX:t=P:problem:przed kluczem inicjał P	!	!	!	!	!
0.r	.	.	1ee	Per-	.	0.r	.	.	0.r	.	.
.	.	.	1cc	-rum-	.	.	.	.	.	.	.
.	.	.	1g#X	-pis	.	.	.	.	.	.	.
=42	=42	=42	=42	=42	=42	=42	=42	=42	=42	=42	=42
1A	Pe-	.	1a	in-	.	1c	Per-	.	1rg	.	.
1F	-rum-	.	0.a	-fer-	.	1A	-rum-	.	1rg	.	.
1C#X	-pis	.	.	.	.	1E	-pis	.	1a	Per-	.
=43	=43	=43	=43-	=43	=43	=43	=43	=43	=43	=43	=43
1D	in-	.	.	.	.	1F	in-	.	1f	-rum-	.
1BB-X	-fer-	.	0d	-nu(m)	.	1B-X	-fer-	.	1d	-pis	.
1FF#X	-nu(m)	.	.	.	.	0A	-nu(m)	.	1A	in-	.
=44	=44	=44	=44	=44	=44	=44-	=44	=44	=44	=44	=44
!	!	!	!	!	!	!	!	!	!LO:TX:a:t=P:problem:♭ above	!	!
0.GG	cha-	.	0.d	cha-	.	.	.	.	1.B-X	-fer-	.
.	.	.	.	.	.	2G/	cha-	.	.	.	.
.	.	.	.	.	.	2F/	.	.	2A/	-nu(m)	.
.	.	.	.	.	.	1G	.	.	1G	cha-	.
=45	=45	=45	=45	=45	=45	=45	=45	=45	=45	=45	=45
!	!	!	!	!	!	!	!	!	!LO:SIC:v:t=custos e	!	!
0.D	-os	.	0.d	-os	.	0.Fn	-os	.	0.A	-os	.
!	!	!	!	!	!	!	!	!	!LO:LB:g=original	!	!
=46	=46	=46	=46	=46	=46	=46	=46	=46	=46	=46	=46
1C#X	Vin-	.	1a	Vin-	.	1A	Vin-	.	1e	Vin-	.
1C#	-ctis	.	1a	-ctis	.	1A	-ctis	.	1e	-ctis	.
1C#	ca-	.	1.a	Ca-	.	1e	Ca-	.	1e	ca-	.
=47	=47	=47	=47-	=47	=47	=47	=47	=47	=47	=47	=47
1.D	-te-	.	.	.	.	1.d	-te-	.	2f\	-te-	.
.	.	.	2g\	-te-	.	.	.	.	2g\	.	.
.	.	.	1.f	.	.	.	.	.	1.a	.	.
2E\	.	.	.	.	.	4c\	.	.	.	.	.
.	.	.	.	.	.	4B\	.	.	.	.	.
2F\	.	.	.	.	.	2A\	.	.	.	.	.
!	!	!	!	!	!	!	!	!	!LO:TX:t=P:problem:ósemki puste w środku	!	!
!	!	!	!	!	!	!	!	!	!LO:N:vis=8	!	!
2G\	.	.	4e/	.	.	2B\	.	.	4g\L	.	.
!	!	!	!	!	!	!	!	!	!LO:N:vis=8	!	!
.	.	.	4d/	.	.	.	.	.	4f\J	.	.
!	!	!	!LO:LB:g=original	!	!	!LO:LB:g=original	!	!	!	!	!
=48	=48	=48	=48	=48	=48	=48	=48	=48	=48	=48	=48
0.A	.	.	1c	-n[a]s	.	2c\	-[na]ſ	.	2e\	-naſ	.
.	.	.	.	.	.	2c\	Ca-	.	2e\	Ca-	.
.	.	.	0a	Ca-	.	2A\	-te-	.	2c/	-te-	.
.	.	.	.	.	.	2B\	.	.	2d\	.	.
.	.	.	.	.	.	2c\	.	.	2e\	.	.
.	.	.	.	.	.	2d\	.	.	2f\	.	.
=49	=49	=49	=49	=49	=49	=49	=49	=49	=49	=49	=49
0E	-naſ	.	2g/	-te-	.	1e	.	.	1g	.	.
.	.	.	2f/	.	.	.	.	.	.	.	.
.	.	.	2g/	.	.	1e	-nas	.	1g	-naſ	.
.	.	.	2a/	.	.	.	.	.	.	.	.
*	*	*	*	*	*	*	*	*	*	*ij	*
1E	Vin-	.	1b	.	.	1e	Ca-	.	1g	Ca-	.
=50	=50	=50	=50	=50	=50	=50	=50	=50	=50	=50	=50
1.F	-ctis	.	1.a	-naſ	.	0d	-te-	.	0f	-te-	.
2G\	ca-	.	2b\	ca-	.	.	.	.	.	.	.
!LO:SIC:v:t=custos E	!	!	!	!	!	!	!	!	!	!	!
1A	-te-	.	1a	-te-	.	1c	-nas	.	1e	-naſ	.
*	*	*	*	*	*	*	*	*	*	*Xij	*
!LO:LB:g=original	!	!	!	!	!	!	!	!	!	!	!
=51	=51	=51	=51	=51	=51	=51	=51	=51	=51	=51	=51
1E	-nas	.	1g	-naſ	.	0c	De-	.	2e\	de-	.
.	.	.	.	.	.	.	.	.	4d\	.	.
.	.	.	.	.	.	.	.	.	4c\	.	.
1.G	de-	.	1.g	de-	.	.	.	.	1.d	.	.
.	.	.	.	.	.	2B\	-tra-	.	.	.	.
2G\	-tra-	.	2g/	-tra-	.	2c\	.	.	2d\	-tra-	.
=52	=52	=52	=52-	=52	=52	=52-	=52	=52	=52	=52	=52
0.C	-his	.	0.g	-hiſ	.	0.c	-hiſ	.	0.e	-his	.
=53	=53	=53	=53	=53	=53	=53	=53	=53	=53	=53	=53
1c	Vi-	.	1cc	Vi-	.	1e	Vi-	.	1g	Vi-	.
1.B	-ctor	.	1.g	-ctor	.	1.d	-ctor	.	1.g	-ctor	.
!	!	!	!	!	!	!	!	!	!LO:TX:a:t=P:problem:# above	!	!
2A\	tri-	.	2a\	tri-	.	2c\	tri-	.	2f#X\	tri-	.
=54	=54	=54	=54	=54	=54	=54	=54	=54	=54	=54	=54
0G	-um-	.	0b	-um-	.	0d	-um-	.	0g	-um-	.
1G	-pho	.	1b	-pho	.	1d	-pho	.	1g	-pho	.
!	!	!	!	!	!	!	!	!	!LO:LB:g=original	!	!
=55	=55	=55	=55	=55	=55	=55	=55	=55	=55	=55	=55
*	*ij	*	*	*ij	*	*	*ij	*	*	*ij	*
1G	Vi-	.	1b	Vi-	.	1d	Vi-	.	1g	Vi-	.
1.F	-ctor	.	1.a	-ctor	.	1.d	-ctor	.	1.d	-ctor	.
!	!	!	!	!	!	!LO:TX:a:t=P:problem:# above	!	!	!	!	!
2E\	tri-	.	2g/	tri-	.	2c#X\	tri-	.	2e\	tri-	.
=56	=56	=56	=56	=56	=56	=56	=56	=56	=56	=56	=56
1D	-um-	.	1a	-um-	.	1d	-um-	.	1f#X	-um-	.
1D	-pho	.	1a	-pho	.	1d	-pho	.	1f#	-pho	.
*	*	*	*	*	*	*	*Xij	*	*	*	*
1BB	Vi-	.	1b	Vi-	.	1d	tri-	.	1g	Vi-	.
=57	=57	=57	=57	=57	=57	=57	=57	=57	=57	=57	=57
1.C	-ctor	.	1g	-ctor	.	0c	-um-	.	1.e	-ctor	.
.	.	.	1g	tri-	.	.	.	.	.	.	.
2D/	tri-	.	.	.	.	.	.	.	2f\	tri-	.
1E	-um-	.	(<2g/	-um-	.	2B\	-pho	.	1g	-um-	.
.	.	.	2a\)	.	.	2c\	.	.	.	.	.
!	!	!	!LO:LB:g=original	!	!	!LO:LB:g=original	!	!	!	!	!
=58	=58	=58	=58	=58	=58	=58	=58	=58	=58	=58	=58
1BB	-pho	.	1b	-pho	.	0d	No-	.	1g	-pho	.
*	*Xij	*	*	*Xij	*	*	*	*	*	*Xij	*
1.D	no-	.	1.a	no-	.	.	.	.	1g	no-	.
.	.	.	.	.	.	1d	-bi-	.	2r	.	.
!	!	!	!	!	!	!	!	!	!LO:TX:a:t=P:problem:# above	!	!
2D/	-bi-	.	2a\	-bi-	.	.	.	.	2f#X\	-bi-	.
=59	=59	=59	=59	=59	=59	=59	=59	=59	=59	=59	=59
0GG	-li	.	0b	-li	.	2d\	-li	.	0g	-li	.
.	.	.	.	.	.	2d\	ad	.	.	.	.
.	.	.	.	.	.	1.e	dex-	.	.	.	.
1E	ad	.	1cc	ad	.	.	.	.	1g	ad	.
.	.	.	.	.	.	2d\	-te-	.	.	.	.
!LO:LB:g=original	!	!	!	!	!	!	!	!	!	!	!
=60	=60	=60	=60	=60	=60	=60	=60	=60	=60	=60	=60
1.F	dex-	.	1.a	dex-	.	1c	-ra(m)	.	1.a	dex-	.
.	.	.	.	.	.	1d	Dê-	.	.	.	.
2E\	-te-	.	2a\	-te-	.	.	.	.	2g\	-te-	.
1D	-ra(m)	.	1b	-ra(m)	.	1d	-i	.	1f	-ra(m)	.
=61	=61	=61	=61	=61	=61	=61	=61	=61	=61	=61	=61
1E	De-	.	1g	De-	.	1B	ad	.	1g	De-	.
1E	-i	.	1g	-i	.	1.c	Dex-	.	1g	-i	.
*	*	*	*	*	*	*	*	*	*	*ij	*
1C	ad	.	1a	ad	.	.	.	.	1e	ad	.
.	.	.	.	.	.	2B\	-te-	.	.	.	.
=62	=62	=62	=62	=62	=62	=62	=62	=62	=62	=62	=62
1.D	dex-	.	1.f	dex-	.	1A	-ra(m)	.	1.f	dex-	.
.	.	.	.	.	.	1B	De-	.	.	.	.
2C/	-te-	.	2f/	-te-	.	.	.	.	2e\	-te-	.
1BB	-ra(m)	.	1g	-ra(m)	.	1B	-i	.	1d	-ram	.
=63	=63	=63	=63	=63	=63	=63	=63	=63	=63	=63	=63
1C	De-	.	2e/	De-	.	1G	ad	.	2c\	De-	.
.	.	.	4f/	-i	.	.	.	.	2d\	.	.
.	.	.	4g/	.	.	.	.	.	.	.	.
2AA/	.	.	1a	.	.	2c\	.	.	1.e	.	.
2BB/	-i	.	.	.	.	2d\	.	.	.	.	.
*	*	*	*	*ij	*	*	*	*	*	*	*
2C/	.	.	1a	De-	.	2e\	dex-	.	.	.	.
!	!	!	!	!	!	!	!	!	!LO:TX:a:t=P:problem:# above	!	!
2D/	.	.	.	.	.	4d\	.	.	2f#X\	.	.
.	.	.	.	.	.	4c\	.	.	.	.	.
!	!	!	!	!	!	!	!	!	!LO:LB:g=original	!	!
=64	=64	=64	=64	=64	=64	=64	=64	=64	=64	=64	=64
*col	*	*	*col	*	*	*	*	*	*	*	*
!	!	!	!	!	!	!	!	!	!LO:SIC:v:s=1g#	!	!
0E	De-	.	2g#X\	.	.	2.B\	.	.	1g	.	.
.	.	.	2a\	.	.	.	.	.	.	.	.
.	.	.	.	.	.	4B\	-te-	.	.	.	.
!	!	!	!	!	!	!LO:TX:t=P:problem:skreślona kreska taktowa	!	!	!	!	!
.	.	.	1b	.	.	1e	-ra(m)	.	1e	.	.
0C	-i	.	0cc	-i	.	1e	De-	.	1a	-i	.
*	*	*	*	*Xij	*	*	*	*	*	*Xij	*
=65-	=65	=65	=65-	=65	=65	=65	=65	=65	=65	=65	=65
.	.	.	.	.	.	1e	-i	.	0a	ſe-	.
0E	ſe-	.	0b	ſe-	.	0e	ſe-	.	.	.	.
!	!	!	!	!	!	!	!	!	!LO:TX:a:t=P:problem:# above	!	!
.	.	.	.	.	.	.	.	.	1g#X	.	.
*Xcol	*	*	*Xcol	*	*	*	*	*	*	*	*
=66-	=66	=66	=66-	=66	=66	=66	=66	=66	=66-	=66	=66
!	!	!	!LO:TX:b:i:t=Vertetur	!	!	!	!	!	!	!	!
0.AA;;	-deſ	.	0.a;;	-des	.	0.e;;	-deſ.	.	0.a	-deſ	.
!	!	!	!LO:PB:g=original	!	!	!LO:PB:g=original	!	!	!	!	!
=67||	=67||	=67||	=67||	=67||	=67||	=67	=67||	=67||	=67	=67||	=67||
*M	*	*	*M3/1	*	*	*M3/1	*	*	*M	*	*
!	!	!	!LO:TX:t=P:problem:przed kluczem inicjał T	!	!	!LO:TX:t=P:problem:przed kluczem inicjał T	!	!	!	!	!
1A	1 Te	2 Tu	1e	1 Te	2 Tu	1c	1 Te	2 Tu	1a	Te	Tu
1A	co-	dux	(2a\	co-	dux	1.c	co-	dux	1a	co-	dux
.	.	.	2b\)	.	.	.	.	.	.	.	.
!LO:TX:b:i:t=Verte	!	!	!	!	!	!	!	!	!	!	!
1AA	-gat	ad	(2cc\	-gat	ad	.	.	.	1e	-gat	.
.	.	.	2dd\)	.	.	2B\	-gat	ad	.	.	.
!LO:PB:g=original	!	!	!	!	!	!	!	!	!	!	!
=68	=68	=68	=68	=68	=68	=68	=68	=68	=68	=68	=68
(2C/	te	as-	2ee\	te	aſ-	2A\	te	a-	2e\	in-	ad
2D/)	.	.	4dd\	.	.	4d\	.	.	2f\	.	.
.	.	.	4cc\	.	.	4c\	.	.	.	.	.
!	!	!	!	!	!	!	!	!	!LO:TX:a:t=P:problem:# above	!	!
1.E	co-	.	1b	.	.	2B\	co-	.	1.g#X	-dul-	a-
.	.	.	.	.	.	4c\	.	.	.	.	.
.	.	.	.	.	.	4d\	.	.	.	.	.
.	.	.	1b	co-	.	0e	-gat	-ſtra	.	.	.
!LO:TX:a:t=P:problem:# above	!	!	!	!	!	!	!	!	!	!	!
4F#X\	.	.	.	.	.	.	.	.	4a\	.	.
!LO:TX:a:t=P:problem:# above	!	!	!	!	!	!	!	!	!	!	!
4G#X\	.	.	.	.	.	.	.	.	4b\	.	.
=69	=69	=69	=69	=69	=69	=69-	=69	=69	=69	=69	=69
1A	-gat	-tra	1cc	-gat	-tra	.	.	.	1a	.	.
1A	in-	êt	1cc	in-	et	1e	in-	êt	1a	-gên-	.
!	!	!	!	!	!	!	!	!	!LO:TX:a:t=P:problem:# above	!	!
1E	-dul-	ſe-	1b	-dul-	ſe-	1e	-dul-	ſe-	1g#X	-ti-	-ſtra
=70	=70	=70	=70	=70	=70	=70	=70	=70	=70	=70	=70
0F	-gen-	-mi-	1.cc	-gen-	.	0e	-gen-	-mi-	0a	-a	et
.	.	.	4dd\	.	.	.	.	.	.	.	.
.	.	.	4cc\	.	.	.	.	.	.	.	.
1F	-ti-	-ta	2b\	.	.	1d	-ti-	-ta	1a	ut	ſe-
.	.	.	2a\	-ti-	-mi-	.	.	.	.	.	.
=71	=71	=71	=71	=71	=71	=71	=71	=71	=71	=71	=71
!	!	!	!	!	!	!	!	!	!LO:TX:a:t=P:problem:# above	!	!
0E	-a	ſis	0b	-a	-ta	0e	-a	.	0g#X	dam-	-mi-
1C	ut	Me-	1cc	ut	ſis	1e	ut	ſis	1g#	-na	-ta
=72	=72	=72	=72	=72	=72	=72	=72	=72	=72	=72	=72
1.F	dam-	-ta	1.cc	dam-	me-	1.f	dam-	me-	1.a	no-	ſiſ
2E\	-na	.	2cc\	-na	-ta	2c\	-na	-ta	2g\	.	me-
!	!	!	!	!	!	!	!	!	!LO:SIC:v:t=custos g	!	!
1D	noſ-	noſ-	1b	.	.	1d	no-	noſ-	1f	.	ta No-
!	!	!	!	!	!	!	!	!	!LO:PB:g=original	!	!
=73	=73	=73	=73	=73	=73	=73	=73	=73	=73	=73	=73
1E	-tra	-tris	1cc	noſ-	noſ-	1c	-ſtra	-tris	1g	-ſtra	-ſtris
1.G	ſar-	cor-	1.cc	-tra	-tris	1.d	ſar-	cor-	1.g	ſar-	cor-
2G\	-ci-	-di-	2b\	.	.	2d\	-ci-	-di-	2g\	-ci-	-di-
=74	=74	=74	=74	=74	=74	=74	=74	=74	=74	=74	=74
0.C	-aſ	-b(us)	0.cc	ſarcias	cordib(us)	0.e	-as	-b(us)	0.g	-aſ	-b(us)
!	!	!	!LO:LB:g=original	!	!	!	!	!	!	!	!
=75	=75	=75	=75	=75	=75	=75	=75	=75	=75	=75	=75
1c	tu-	ſis	1cc	tu-	ſis	1e	tu-	ſis	1g	Tu-	ſis
!	!	!	!LO:TX:a:t=P:problem:♭ above	!	!	!	!	!	!	!	!
1G	-i-	la-	1b-X	-i-	la-	1d	-i-	la-	1g	-i-	la-
!	!	!	!	!	!	!LO:TX:t=P:problem:nuta i tekst pod nią był zapisany na pionowym pasku papieru, naklejonym na pierwotną kartkę, który tu ewidentnie odpadł, dlatego brak nuty i końcówki pięciolinii, oraz sylab "que" z "Tuique" i "achry" ze słowa Lachrymarum	!	!	!	!	!
1A	-q(ue)	-cry-	2a\	-q(ue)	.	1cyy	-q(ue)	.	1f	-q(ue)	-chry-
.	.	.	2g\	.	.	.	.	.	.	.	.
!	!	!	!	!	!	!LO:LB:g=original	!	!	!	!	!
=76	=76	=76	=76	=76	=76	=76	=76	=76	=76	=76	=76
1.B-X	Vul-	-ma-	1f	Vul-	-cry-	1.d	Vul-	-ma-	0f	Vul-	-ma-
.	.	.	2g/	.	.	.	.	.	.	.	.
!	!	!	!	!	!	!LO:N:acc=-	!	!	!	!	!
!	!	!	!	!	!	!LO:TX:a:t=P:problem:♭ above	!	!	!	!	!
2A\	.	.	2a\	.	.	2cn\	.	.	.	.	.
!	!	!	!LO:TX:a:t=P:problem:♭ above	!	!	!	!	!	!	!	!
1G	-t(us)	.	1b-X	-t(us)	-ma-	1B-X	.	.	1g	-t(us)	-ru(m)
=77-	=77	=77	=77	=77	=77	=77	=77	=77	=77	=77	=77
1.D	Vul-	.	1.a	Vul-	-ru(m)	1A	-t(us)	-ru(m)	1.f	com-	gau-
.	.	.	.	.	.	1A	com-	la-	.	.	.
!LO:TX:t=P:problem:nuty niewidoczne - zagięcie karty	!	!	!	!	!	!	!	!	!	!	!
2E\	.	.	4b\	.	.	.	.	.	2g\	.	.
.	.	.	4cc\	.	.	.	.	.	.	.	.
2F\yy	.	.	1dd	-t(us)	gau-	2A/	-po-	-chry-	2a\	.	.
!	!	!	!	!	!	!LO:TX:a:t=P:problem:♭ above	!	!	!	!	!
4E\yy	.	.	.	.	.	2B-X/	-teſ	.	4g\	.	.
4D\yy	.	.	.	.	.	.	.	.	4f\	.	.
!LO:LB:g=original	!	!	!	!	!	!	!	!	!	!	!
=78	=78	=78	=78	=78	=78	=78	=78	=78	=78	=78	=78
0A	-t(us)	-ru(m)	0cc	Com-	.	0A	Vul-	-ma-	0e	.	.
1B-X	com-	gau-	0dd	.	.	1F	-t(us)	.	2d\	.	.
.	.	.	.	.	.	.	.	.	2e\	.	.
=79	=79	=79	=79-	=79	=79	=79	=79	=79	=79	=79	=79
0A	.	-di-	.	.	.	0A	com-	-ru(m)	1f	.	.
!	!	!	!LO:TX:a:t=P:problem:# above	!	!	!	!	!	!	!	!
.	.	.	2cc#X\	.	.	.	.	.	2e\	.	.
.	.	.	2b\	.	.	.	.	.	2d\	.	.
!	!	!	!LO:TX:a:t=P:problem:# above	!	!	!	!	!	!	!	!
1A	-po-	-um	2.cc#X\	.	.	1A	-po-	.	2.e\	.	.
.	.	.	4cc#\	-po-	-di-	.	.	.	4e\	.	.
=80	=80	=80	=80	=80	=80	=80-	=80	=80	=80	=80	=80
0D	-teſ	.	0dd	-teſ	-u(m)	0A	-tes	gau-	0d	-teſ	-di-
!LO:TX:a:t=P:problem:# above	!	!	!	!	!	!	!	!	!	!	!
1C#X	di-	ſis	1a	di-	ſis	1A	.	-di-	1e	di-	-um
=81	=81	=81	=81	=81	=81	=81-	=81	=81	=81	=81	=81
0F	-tes	dul-	0a	-teſ	dul-	0c	di-	-u(m)	0f	-teſ	ſis
1D	be-	-ce	1b	be-	-ce	1d	-tes	.	1f	Be-	dulce
!	!	!	!	!	!	!	!	!	!LO:LB:g=original	!	!
=82	=82	=82	=82	=82	=82	=82	=82	=82	=82	=82	=82
!	!	!	!	!	!	!LO:N:acc=#	!	!	!	!	!
1E,<	-a-	.	1g#X	-a-	Vi-	1Bn	be-	ſis	1e	-a-	vi-
1E	-to	Vi-	1g#	-to	-t(ae)	1B	-a-	dul-	1e	-to	-t(ae)
1C#X	di-	-t(ae)	1a	di-	ſis	1e	-to	-ce	1e	ci-	ſis
=83	=83	=83	=83	=83	=83	=83	=83	=83	=83	=83	=83
1.D	-tes	ſis	1.a	-teſ	dul-	1.d	di-	Vi-	1.f	-ces	dul-
2C/	be-	dul-	2a\	be-	-ce	2e\	-tes	-t(ae)	2e\	.	-ce
!	!	!	!	!	!	!	!	!	!LO:TX:a:t=P:problem:# above	!	!
(2D/	-a-	-ce	1dd	-a-	Vi-	1d	bea-	ſiſ	2f#X\	Be-	.
!	!	!	!	!	!	!	!	!	!LO:TX:a:t=P:problem:# above	!	!
2E/)	.	.	.	.	.	.	.	.	2g#X\	.	.
=84	=84	=84	=84	=84	=84	=84	=84	=84	=84	=84	=84
1.F	-to	ſis	0.cc	-to	-t(ae)	1.c	-to	dul-	1.a	-a-	Vi-
2G\	be-	dul-	.	.	.	2B\	be-	-ce	4g\	.	.
.	.	.	.	.	.	.	.	.	4f\	.	.
*	*	*	*	*	*	*	*	*ij	*	*	*
1A	-a-	-ce	.	.	.	1A	-a-	dulce	1e	.	.
*	*	*	*	*	*	*	*	*Xij	*	*	*
!	!	!	!LO:LB:g=original	!	!	!	!	!	!	!	!
=85	=85	=85	=85	=85	=85	=85	=85	=85	=85	=85	=85
1D	-to	Vi-	1dd	lu-	pr(ae)-	1B	-to	Vi-	1a	-to	-t(ae)
1.E	lu-	-t(ae)	1.b	-mi-	.	1.e	lu-	-t(ae)	1.a	lu-	pr(ae)-
!	!	!	!	!	!	!	!	!	!LO:TX:b:t=P:problem:# below	!	!
2E\	-mi-	pr(ae)-	2b\	-ne	-mi-	2e\	-mi-	p(rae)-	2g#X\	-mi-	-mi-
=86	=86	=86	=86-	=86	=86	=86-	=86	=86	=86	=86	=86
0.AA;	-ne	-miu(m)	0.cc#X;;	.	-u(m)	0.e;	-ne	-mi[um]	0.a	-ne	-u(m)
!	!	!	!	!	!	!LO:LB:g=original	!	!	!	!	!
=87||-	=87||	=87||	=87||	=87||	=87||	=87||	=87||	=87||	=87||-	=87||	=87||
*M2/2	*	*	*M2/2	*	*	*M2/2	*	*	*M2/2	*	*
*met(c)	*	*	*met(c|)	*	*	*met(c|)	*	*	*met(c|)	*	*
!LO:TX:b:t=3	!	!	!LO:TX:t=P:problem:przed metrum dwudzielnym oznaczenie trójdzielnego: 3	!	!	!LO:TX:b:t= 3	!	!	!	!	!
!	!	!	!	!	!	!	!	!	!LO:TX:t=P:problem:kreska taktowa:między nutą i kropką	!	!
1D	a-	.	1a	a-	.	1.d	a-	.	1.f	.	a-
=88-	=88	=88	=88	=88	=88	=88.	=88	=88	=88	=88	=88
0AA;;	-men.	.	0a;<	-men.	.	.	.	.	.	.	.
!	!	!	!	!	!	!LO:TX:a:t=P:problem:# above	!	!	!	!	!
.	.	.	.	.	.	4c#X\	.	.	4e\	.	.
.	.	.	.	.	.	4B\	.	.	4d\	.	.
=89-	=89	=89	=89	=89	=89	=89-	=89	=89	=89	=89	=89
!	!	!	!	!	!	!	!	!	!LO:N:vis=0	!	!
.	.	.	.	.	.	1c#X;<	-men	.	1e;;	.	-men
!LO:LB:g=original	!	!	!	!	!	!	!	!	!LO:LB:g=original	!	!
==	==	==	==	==	==	==	==	==	==	==	==
*-	*-	*-	*-	*-	*-	*-	*-	*-	*-	*-	*-
!!!system-decoration: [(s1,s2,s3,s4)]
!!!RDF**kern: < = below
!!!RDF**kern: > = above
!!!ENC: Marta Chmielewska
!!!END: 2021-04-07
!!!ENC: Mateusz Solarz
!!!END: 2021-03-29
